usr/share/icons/biglinux-icons-material/22/actions/noisereduction.svg

<svg xmlns="http://www.w3.org/2000/svg" viewBox="0 0 22 22">
  <defs id="defs3051">
    <style type="text/css" id="current-color-scheme">
      .ColorScheme-Text {
        color:#363636;
      }
      </style>
  </defs>
 <path 
     style="fill:currentColor;fill-opacity:1;stroke:none" 
     d="M 10.988281 3 L 6 7.9902344 L 6 8 L 6 9 L 6 13 L 6 14 L 6 14.009766 L 10.988281 19 L 12 19 L 12 18.597656 L 12 3.4023438 L 12 3 L 10.988281 3 z M 14.324219 7.28125 L 13.785156 8.1425781 A 4 4 0 0 1 15 11 A 4 4 0 0 1 13.789062 13.861328 L 14.328125 14.724609 A 5 5 0 0 0 16 11 A 5 5 0 0 0 14.324219 7.28125 z M 3 8 L 3 9 L 3 13 L 3 14 L 5 14 L 5 13 L 5 9 L 5 8 L 3 8 z "
     class="ColorScheme-Text"
     />
 <path 
     style="fill:currentColor;fill-opacity:0.5;stroke:none" 
     d="M 13.865234 3.5371094 L 13.621094 4.5136719 A 7 7 0 0 1 18 11 A 7 7 0 0 1 13.619141 17.478516 L 13.863281 18.453125 A 8 8 0 0 0 19 11 A 8 8 0 0 0 13.865234 3.5371094 z "
     class="ColorScheme-Text"
     />
</svg>

<svg xmlns="http://www.w3.org/2000/svg" viewBox="0 0 22 22"><defs id="defs3051"><style id="current-color-scheme" type="text/css">.ColorScheme-Text{color:#dedede}</style></defs><path d="M10.988 3 6 7.99v6.02L10.988 19H12V3h-1.012zm3.336 4.281-.539.862A4 4 0 0 1 15 11a4 4 0 0 1-1.21 2.861l.538.864A5 5 0 0 0 16 11a5 5 0 0 0-1.676-3.719zM3 8v6h2V8H3z" class="ColorScheme-Text" style="fill:currentColor;fill-opacity:1;stroke:none"/><path d="m13.865 3.537-.244.977A7 7 0 0 1 18 11a7 7 0 0 1-4.38 6.479l.243.974A8 8 0 0 0 19 11a8 8 0 0 0-5.135-7.463z" class="ColorScheme-Text" style="fill:currentColor;fill-opacity:.5;stroke:none"/></svg>
